!!!!SEGMENT: pl-kk--kk-i-322--002_casali-giovanni-battista-credidi-propter-calicem-salutaris.krn
!!!id: 17xx:2124
!!!COM: Casali, Giovanni Battista
!!!OTL: Credidi propter – Calicem salutaris
!!!PDT:
!!!SMS-siglum: PL-Kk
!!!SMS-shelfmark: Kk.I.322
!!!NIFC-rismID: 1001146194
!!!URL-scan: http://repozytorium.nifc.pl/skany/pl-kk-nut--i-322
!!!ONB-nifc: UWAGA: części Credidi: 1. Credidi propter, 2. Calicem salutaris, 3. Vota mea, 4. O Domine, 5. Dirupisti vincula mea, 6. Vota mea, 7. Gloria Patri, 8. Et in saecula saeculorum
!!!SMS-variant:
!!!SMS-altvar:
**kern	**fba	**kern	**kern	**kern	**kern	**kern	**text
*part6	*part6	*part5	*part4	*part3	*part2	*part1	*part1
*staff6	*	*staff5	*staff4	*staff3	*staff2	*staff1	*staff1
*I"Organo	*	*I"Baſso di Ripieno	*I"Tenore di Ripieno	*I"Alto di Ripieno	*I"Canto di Ripieno	*I"Canto ſolo	*
*I'org	*	*I'B rip	*I'T rip	*I'A rip	*I'S rip	*I'S	*
*clefF4	*	*clefF4	*clefC4	*clefC3	*clefC1	*clefC1	*
*k[f#c#]	*	*k[f#c#]	*k[f#c#]	*k[f#c#]	*k[f#c#]	*k[c#f#]	*
*M3/4	*	*M3/4	*M3/4	*M3/4	*M3/4	*M3/4	*
=1	=1	=1	=1	=1	=1	=1	=1
!	!	!	!	!	!	!LO:TX:b:t=1	!
!LO:TX:rj:a:t=Solo	!	!	!	!	!	!	!
!LO:TX:a:B:t=All(egr)o	!	!LO:TX:a:t=Calicem Salutariſ Tace(t)	!LO:TX:a:t=Calicem Salutariſ Tace(t)	!LO:TX:a:t=Calicem Salutariſ Tace(t)	!LO:TX:a:t=Calicem Salutariſ Tacet	!LO:TX:a:B:t=All(egr)o	!
4d\	.	2.ryy	2.ryy	2.ryy	2.ryy	2.r	.
4A\	6 4	.	.	.	.	.	.
4F#\	.	.	.	.	.	.	.
=2	=2	=2	=2	=2	=2	=2	=2
!LO:TX:b:t=Calice(m)	!	!	!	!	!	!LO:TX:t=P:problem:all\right	!
4D/	.	2.ryy	2.ryy	2.ryy	2.ryy	4dd\	Ca-
4r	.	.	.	.	.	4a\	-li-
4r	.	.	.	.	.	4f#/	-cem
=3	=3	=3	=3	=3	=3	=3	=3
*	*below	*	*	*	*	*	*
4F#\	6	2.ryy	2.ryy	2.ryy	2.ryy	4d/	ſa-
*	*	*	*	*	*	*2\right	*
4F#\	.	.	.	.	.	2dd\	-lu-
4F#\	.	.	.	.	.	.	.
=4	=4	=4	=4	=4	=4	=4	=4
4G\	4 2	2.ryy	2.ryy	2.ryy	2.ryy	8.cc#\L	-ta-
.	.	.	.	.	.	16ee\Jk	.
4F#\	6	.	.	.	.	4dd\	-riſ
4G\	5	.	.	.	.	4b\	ac-
!LO:LB:g=original	!	!	!	!	!	!	!
=5	=5	=5	=5	=5	=5	=5	=5
4F#\	6	2.ryy	2.ryy	2.ryy	2.ryy	2a\	-ci-
4F#\	.	.	.	.	.	.	.
4E\	.	.	.	.	.	4g\	-pi-
!	!	!	!	!	!	!LO:PB:g=original	!
=6	=6	=6	=6	=6	=6	=6	=6
8.D\L	.	2.ryy	2.ryy	2.ryy	2.ryy	2f#/	-am
16E\Jk	.	.	.	.	.	.	.
4F#\	.	.	.	.	.	.	.
4F#\	.	.	.	.	.	4dd\	ac-
=7	=7	=7	=7	=7	=7	=7	=7
.	.	.	.	.	.	8qqa/	.
4E\	7	2.ryy	2.ryy	2.ryy	2.ryy	2g\	-ci-
4E\	.	.	.	.	.	.	.
4AA/	7	.	.	.	.	4g\	-pi-
=8	=8	=8	=8	=8	=8	=8	=8
4D\	.	2.ryy	2.ryy	2.ryy	2.ryy	2f#/	-am
4F#\	.	.	.	.	.	.	.
4A\	.	.	.	.	.	4r	.
=9	=9	=9	=9	=9	=9	=9	=9
4d\	.	2.ryy	2.ryy	2.ryy	2.ryy	4a\	et
4d\	.	.	.	.	.	8dd\L	no-
.	.	.	.	.	.	8a\J	.
4d\	.	.	.	.	.	8ff#\L	-men
.	.	.	.	.	.	8dd\J	.
!LO:LB:g=original	!	!	!	!	!	!	!
=10	=10	=10	=10	=10	=10	=10	=10
4c#\	6	2.ryy	2.ryy	2.ryy	2.ryy	4.ee\	Do-
4c#\	.	.	.	.	.	.	.
.	.	.	.	.	.	8dd\	-mi-
4c#\	.	.	.	.	.	4cc#\	-ni
!	!	!	!	!	!	!LO:LB:g=original	!
=11	=11	=11	=11	=11	=11	=11	=11
4B\	.	2.ryy	2.ryy	2.ryy	2.ryy	4g#X/	et
4B\	#6	.	.	.	.	8dd\L	no-
.	.	.	.	.	.	8b\J	.
4G#X\	.	.	.	.	.	8ff#\L	-men
.	.	.	.	.	.	8dd\J	.
=12	=12	=12	=12	=12	=12	=12	=12
4A\	.	2.ryy	2.ryy	2.ryy	2.ryy	4.cc#\	Do-
4A\	.	.	.	.	.	.	.
.	.	.	.	.	.	8dd\	-mi-
4A\	.	.	.	.	.	4ee\	-ni
=13	=13	=13	=13	=13	=13	=13	=13
4D/	8 6	2.ryy	2.ryy	2.ryy	2.ryy	4dd\	in-
4D#X/	4 5	.	.	.	.	2cc#\	-vo-
4D#/	.	.	.	.	.	.	.
=14	=14	=14	=14	=14	=14	=14	=14
4E\	6 4	2.ryy	2.ryy	2.ryy	2.ryy	4cc#\	-ca-
4E\	#	.	.	.	.	4b\	-bo
4E\	3	.	.	.	.	4r	.
!LO:LB:g=original	!	!	!	!	!	!LO:LB:g=original	!
=15	=15	=15	=15	=15	=15	=15	=15
!	!	!	!	!	!	!LO:TX:t=P:problem:brak tekstu	!
4E\	.	2.ryy	2.ryy	2.ryy	2.ryy	4e/	(in-
4E\	.	.	.	.	.	2ee\	-vo-
4E\	.	.	.	.	.	.	.
=16	=16	=16	=16	=16	=16	=16	=16
4E\	7	2.ryy	2.ryy	2.ryy	2.ryy	12dd\L	-ca)-
.	.	.	.	.	.	12cc#\	.
.	.	.	.	.	.	12dd\J	.
4E\	.	.	.	.	.	12b\L	.
.	.	.	.	.	.	12a\	.
.	.	.	.	.	.	12b\J	.
4E\	.	.	.	.	.	4g#X/	.
=17	=17	=17	=17	=17	=17	=17	=17
4A\	.	2.ryy	2.ryy	2.ryy	2.ryy	12cc#\L	.
.	.	.	.	.	.	12b\	.
.	.	.	.	.	.	12cc#\J	.
4B\	.	.	.	.	.	12dd\L	.
.	.	.	.	.	.	12cc#\	.
.	.	.	.	.	.	12dd\J	.
!	!	!	!	!	!	!LO:TX:a:t=|:problem	!
4c#\	.	.	.	.	.	4ee\	.
=18	=18	=18	=18	=18	=18	=18	=18
4B\	.	2.ryy	2.ryy	2.ryy	2.ryy	12dd\L	.
.	.	.	.	.	.	12cc#\	.
.	.	.	.	.	.	12dd\J	.
4B\	#6	.	.	.	.	12b\L	.
.	.	.	.	.	.	12a\	.
.	.	.	.	.	.	12b\J	.
4B\	.	.	.	.	.	4g#X/	.
!	!	!	!	!	!	!LO:LB:g=original	!
=19	=19	=19	=19	=19	=19	=19	=19
4A\	.	2.ryy	2.ryy	2.ryy	2.ryy	12cc#\L	.
.	.	.	.	.	.	12b\	.
.	.	.	.	.	.	12cc#\J	.
4B\	.	.	.	.	.	12dd\L	.
.	.	.	.	.	.	12cc#\	.
.	.	.	.	.	.	12dd\J	.
!	!	!	!	!	!	!LO:TX:a:t=|:problem	!
4c#\	.	.	.	.	.	4ee\	.
!LO:LB:g=original	!	!	!	!	!	!	!
=20	=20	=20	=20	=20	=20	=20	=20
4D/	.	2.ryy	2.ryy	2.ryy	2.ryy	12ff#\L	.
.	.	.	.	.	.	12ee\	.
.	.	.	.	.	.	12ff#\J	.
4BB/	#6	.	.	.	.	12gg#X\L	.
.	.	.	.	.	.	12ff#\	.
.	.	.	.	.	.	12gg#\J	.
!	!	!	!	!	!	!LO:TX:a:t=|:problem	!
4AA/	.	.	.	.	.	4aa\	.
=21	=21	=21	=21	=21	=21	=21	=21
(4D\	6	2.ryy	2.ryy	2.ryy	2.ryy	4b\	.
4F#\	6	.	.	.	.	4dd\	.
4E\)	6	.	.	.	.	4cc#\	.
!	!	!	!	!	!	!LO:LB:g=original	!
=22	=22	=22	=22	=22	=22	=22	=22
(4D\	6	2.ryy	2.ryy	2.ryy	2.ryy	4b\	.
4F#\	6	.	.	.	.	4dd\	.
4E\)	6	.	.	.	.	4cc#\	.
=23	=23	=23	=23	=23	=23	=23	=23
4D\	6 5	2.ryy	2.ryy	2.ryy	2.ryy	8ff#\L	.
.	.	.	.	.	.	8dd\J	.
.	.	.	.	.	.	8qqcc#/	.
4E\	6 4	.	.	.	.	2b\	.
4EE/	#3	.	.	.	.	.	.
=24	=24	=24	=24	=24	=24	=24	=24
8.A\L	.	2.ryy	2.ryy	2.ryy	2.ryy	4a\	-bo
16B\Jk	.	.	.	.	.	.	.
4c#\	.	.	.	.	.	4r	.
4A\	.	.	.	.	.	4r	.
!LO:LB:g=original	!	!	!	!	!	!	!
=25	=25	=25	=25	=25	=25	=25	=25
*2\right	*	*	*	*	*	*	*
2G#X\	.	2.ryy	2.ryy	2.ryy	2.ryy	4e/	et
.	.	.	.	.	.	8dd\L	no-
.	.	.	.	.	.	8b\J	.
4A\	.	.	.	.	.	8cc#\L	-men
.	.	.	.	.	.	8a\J	.
!	!	!	!	!	!	!LO:LB:g=original	!
=26	=26	=26	=26	=26	=26	=26	=26
4E/	#3	2.ryy	2.ryy	2.ryy	2.ryy	4.g#X/	do-
4D/	#4	.	.	.	.	.	.
.	.	.	.	.	.	8b\	-mi-
4C#/	6	.	.	.	.	4a\	-ni
=27	=27	=27	=27	=27	=27	=27	=27
2G#X\	6	2.ryy	2.ryy	2.ryy	2.ryy	4r	.
.	5	.	.	.	.	8dd\L	in-
.	.	.	.	.	.	8b\J	.
4A\	.	.	.	.	.	8cc#\L	-vo-
.	.	.	.	.	.	8a\J	.
!!linebreak:original
=28	=28	=28	=28	=28	=28	=28	=28
4E/	#3	2.ryy	2.ryy	2.ryy	2.ryy	(4.g#X\	-ca-
4D/	#4	.	.	.	.	.	.
.	.	.	.	.	.	8b\)	.
!	!	!	!	!	!	!LO:TX:a:t=|:problem	!
4C#/	6	.	.	.	.	4a\	-bo
=29	=29	=29	=29	=29	=29	=29	=29
8D\L	.	2.ryy	2.ryy	2.ryy	2.ryy	2.ff#\	in-
8D\	.	.	.	.	.	.	.
8D\	.	.	.	.	.	.	.
8D\	.	.	.	.	.	.	.
8D\	.	.	.	.	.	.	.
8D\J	.	.	.	.	.	.	.
!LO:LB:g=original	!	!	!	!	!	!LO:LB:g=original	!
=30	=30	=30	=30	=30	=30	=30	=30
8D\L	.	2.ryy	2.ryy	2.ryy	2.ryy	2.aa\	-vo-
8D\	.	.	.	.	.	.	.
8D\	.	.	.	.	.	.	.
8D\	.	.	.	.	.	.	.
8D\	.	.	.	.	.	.	.
8D\J	.	.	.	.	.	.	.
=31	=31	=31	=31	=31	=31	=31	=31
8E\L	.	2.ryy	2.ryy	2.ryy	2.ryy	2.cc#\	-ca-
8E\	.	.	.	.	.	.	.
8E\	.	.	.	.	.	.	.
8E\	6 4	.	.	.	.	.	.
8E\	.	.	.	.	.	.	.
8E\J	.	.	.	.	.	.	.
=32	=32	=32	=32	=32	=32	=32	=32
8E\L	.	2.ryy	2.ryy	2.ryy	2.ryy	2.b\	.
8E\	.	.	.	.	.	.	.
8E\	.	.	.	.	.	.	.
8E\	4 #3	.	.	.	.	.	.
8E\	.	.	.	.	.	.	.
8E\J	.	.	.	.	.	.	.
=33	=33	=33	=33	=33	=33	=33	=33
4A\	.	2.ryy	2.ryy	2.ryy	2.ryy	4a\	-bo
*	*above	*	*	*	*	*	*
4E\	6 4	.	.	.	.	4r	.
4C#\	.	.	.	.	.	4r	.
=34	=34	=34	=34	=34	=34	=34	=34
4AA/	.	2.ryy	2.ryy	2.ryy	2.ryy	4ee\	ca-
.	.	.	.	.	.	8qqdd/	.
4r	.	.	.	.	.	4cc#\	-li-
.	.	.	.	.	.	8qqb/	.
4r	.	.	.	.	.	4a\	-cem
!LO:PB:g=original	!	!	!	!	!	!LO:LB:g=original	!
=35	=35	=35	=35	=35	=35	=35-	=35
4C#/	.	2.ryy	2.ryy	2.ryy	2.ryy	4a\	ſa-
*	*below	*	*	*	*	*	*
4C#/	6	.	.	.	.	2a\	-lu-
4C#/	.	.	.	.	.	.	.
=36	=36	=36	=36	=36	=36	=36	=36
4D/	1 #4	2.ryy	2.ryy	2.ryy	2.ryy	8.g#X\L	-ta-
.	.	.	.	.	.	16b\Jk	.
4C#/	6	.	.	.	.	4a\	-riſ
4D/	5	.	.	.	.	4ff#\	ac-
=37	=37	=37	=37	=37	=37	=37	=37
4GG#X/	6	2.ryy	2.ryy	2.ryy	2.ryy	2ee\	-ci-
4GG#/	.	.	.	.	.	.	.
4GG#/	5	.	.	.	.	4dd\	-pi-
!!pagebreak:original
=38	=38	=38	=38	=38	=38	=38	=38
4AA/	.	2.ryy	2.ryy	2.ryy	2.ryy	2cc#\	-am
8A\L	.	.	.	.	.	.	.
8Gn\	.	.	.	.	.	.	.
8F#\	.	.	.	.	.	4r	.
8E\J	.	.	.	.	.	.	.
!	!	!	!	!	!	!LO:LB:g=original	!
=39	=39	=39	=39	=39	=39	=39	=39
4D\	.	2.ryy	2.ryy	2.ryy	2.ryy	4dd\	Ca-
4r	.	.	.	.	.	4a\	-li-
4r	.	.	.	.	.	4f#\	-cem
!LO:LB:g=original	!	!	!	!	!	!	!
=40	=40	=40	=40	=40	=40	=40	=40
4F#\	6	2.ryy	2.ryy	2.ryy	2.ryy	4d/	ſa-
4F#\	.	.	.	.	.	2dd\	-lu-
4F#\	.	.	.	.	.	.	.
=41	=41	=41	=41	=41	=41	=41	=41
4G\	1 #4	2.ryy	2.ryy	2.ryy	2.ryy	8.cc#\L	-ta-
.	.	.	.	.	.	16ee\Jk	.
4F#\	.	.	.	.	.	4dd\	-riſ
4G\	5	.	.	.	.	4b\	ac-
=42	=42	=42	=42	=42	=42	=42	=42
4F#\	6	2.ryy	2.ryy	2.ryy	2.ryy	2a\	-ci-
4F#\	.	.	.	.	.	.	.
4E\	.	.	.	.	.	4g\	-pi-
=43	=43	=43	=43	=43	=43	=43	=43
4D\	.	2.ryy	2.ryy	2.ryy	2.ryy	4f#/	-am
4D\	.	.	.	.	.	4r	.
4E\	.	.	.	.	.	4r	.
!	!	!	!	!	!	!LO:PB:g=original	!
=44	=44	=44	=44	=44	=44	=44	=44
4F#\	6	2.ryy	2.ryy	2.ryy	2.ryy	4a\	et
4F#\	.	.	.	.	.	4dd\	no-
4E\	.	.	.	.	.	4cc#\	-men
!LO:LB:g=original	!	!	!	!	!	!	!
=45	=45	=45	=45	=45	=45	=45	=45
4D\	.	2.ryy	2.ryy	2.ryy	2.ryy	4.dd\	do-
4D\	.	.	.	.	.	.	.
.	.	.	.	.	.	8ee\	-mi-
4D\	.	.	.	.	.	4ff#\	-ni
=46	=46	=46	=46	=46	=46	=46	=46
4C#/	.	2.ryy	2.ryy	2.ryy	2.ryy	4ee\	in-
4D/	.	.	.	.	.	2ff#\	-vo-
4D/	.	.	.	.	.	.	.
=47	=47	=47	=47	=47	=47	=47	=47
4A\	6 4	2.ryy	2.ryy	2.ryy	2.ryy	4ff#\	-ca-
4AA/	5 3	.	.	.	.	4ee\	-bo
4AA/	.	.	.	.	.	4r	.
!!linebreak:original
!	!	!	!	!	!	!LO:LB:g=original	!
=48	=48	=48	=48	=48	=48	=48	=48
4AA/	.	2.ryy	2.ryy	2.ryy	2.ryy	4a\	in-
4AA/	.	.	.	.	.	2a\	-vo-
4AA/	.	.	.	.	.	.	.
=49	=49	=49	=49	=49	=49	=49	=49
4AA/	7	2.ryy	2.ryy	2.ryy	2.ryy	12gg\L	-ca-
.	.	.	.	.	.	12ff#\	.
.	.	.	.	.	.	12gg\J	.
4AA/	.	.	.	.	.	12ee\L	.
.	.	.	.	.	.	12dd\	.
.	.	.	.	.	.	12ee\J	.
!	!	!	!	!	!	!LO:TX:a:t=|:problem	!
4AA/	.	.	.	.	.	4cc#\	.
!LO:LB:g=original	!	!	!	!	!	!	!
=50	=50	=50	=50	=50	=50	=50	=50
4AA/	.	2.ryy	2.ryy	2.ryy	2.ryy	4a\	.
4AA/	.	.	.	.	.	4ee\	.
4AA/	.	.	.	.	.	4gg\	.
=51	=51	=51	=51	=51	=51	=51	=51
4AA/	6	2.ryy	2.ryy	2.ryy	2.ryy	12ff#\L	.
.	.	.	.	.	.	12ee\	.
.	.	.	.	.	.	12ff#\J	.
4AA/	.	.	.	.	.	12dd\L	.
.	.	.	.	.	.	12cc#\	.
.	.	.	.	.	.	12dd\J	.
!	!	!	!	!	!	!LO:TX:a:t=|:problem	!
4AA/	.	.	.	.	.	4a\	.
!	!	!	!	!	!	!LO:LB:g=original	!
=52	=52	=52	=52	=52	=52	=52	=52
4AA/	.	2.ryy	2.ryy	2.ryy	2.ryy	4dd\	.
4AA/	.	.	.	.	.	4ff#\	.
4AA/	.	.	.	.	.	4aa\	.
=53	=53	=53	=53	=53	=53	=53	=53
!	!	!	!	!	!	!LO:TUP:b	!
4AA/	7	2.ryy	2.ryy	2.ryy	2.ryy	12gg\L	.
.	.	.	.	.	.	12ff#\	.
.	.	.	.	.	.	12gg\J	.
4AA/	.	.	.	.	.	12ee\L	.
.	.	.	.	.	.	12dd\	.
.	.	.	.	.	.	12ee\J	.
!	!	!	!	!	!	!LO:TX:a:t=|:problem	!
4AA/	.	.	.	.	.	4cc#\	.
=54	=54	=54	=54	=54	=54	=54	=54
4AA/	.	2.ryy	2.ryy	2.ryy	2.ryy	4a\	.
4AA/	.	.	.	.	.	4ee\	.
4AA/	.	.	.	.	.	4gg\	.
!LO:LB:g=original	!	!	!	!	!	!	!
=55	=55	=55	=55	=55	=55	=55	=55
4D\	.	2.ryy	2.ryy	2.ryy	2.ryy	[<4ff#\	.
4D\	.	.	.	.	.	12ff#\L]	.
.	.	.	.	.	.	12gg\	.
.	.	.	.	.	.	12aa\J	.
4E\	.	.	.	.	.	12gg\L	.
.	.	.	.	.	.	12ff#\	.
.	.	.	.	.	.	12ee\J	.
!!pagebreak:original
!	!	!	!	!	!	!LO:LB:g=original	!
=56	=56	=56	=56	=56	=56	=56	=56
4F#\	6	2.ryy	2.ryy	2.ryy	2.ryy	[<4dd\	.
4F#\	.	.	.	.	.	12dd\L]	.
.	.	.	.	.	.	12ee\	.
.	.	.	.	.	.	12ff#\J	.
4G\	.	.	.	.	.	12ee\L	.
.	.	.	.	.	.	12dd\	.
.	.	.	.	.	.	12cc#\J	.
=57	=57	=57	=57	=57	=57	=57	=57
4F#\	6	2.ryy	2.ryy	2.ryy	2.ryy	12dd\L	.
.	.	.	.	.	.	12cc#\	.
.	.	.	.	.	.	12dd\J	.
4C#\	.	.	.	.	.	12ee\L	.
.	.	.	.	.	.	12dd\	.
.	.	.	.	.	.	12ee\J	.
!	!	!	!	!	!	!LO:TX:a:t=|:problem	!
4D\	.	.	.	.	.	4ff#\	.
=58	=58	=58	=58	=58	=58	=58	=58
(4G\	6	2.ryy	2.ryy	2.ryy	2.ryy	4ee\	.
4B\	6	.	.	.	.	4gg\	.
4A\)	6	.	.	.	.	4ff#\	.
=59	=59	=59	=59	=59	=59	=59	=59
(4G\	6	2.ryy	2.ryy	2.ryy	2.ryy	4ee\	.
4B\	6	.	.	.	.	4gg\	.
4A\)	6	.	.	.	.	4ff#\	.
!LO:LB:g=original	!	!	!	!	!	!	!
=60	=60	=60	=60	=60	=60	=60	=60
4G\	6 4	2.ryy	2.ryy	2.ryy	2.ryy	8.bb\L	.
.	.	.	.	.	.	16gg\Jk	.
.	.	.	.	.	.	8qqff#/	.
4A\	4	.	.	.	.	2ee\	.
4AA/	3	.	.	.	.	.	.
!	!	!	!	!	!	!LO:LB:g=original	!
=61	=61	=61	=61	=61	=61	=61	=61
8.D\L	.	2.ryy	2.ryy	2.ryy	2.ryy	4dd\	-bo
16E\Jk	.	.	.	.	.	.	.
4F#\	.	.	.	.	.	4r	.
4D\	.	.	.	.	.	4r	.
=62	=62	=62	=62	=62	=62	=62	=62
2C#/	6 5	2.ryy	2.ryy	2.ryy	2.ryy	4a\	et
.	.	.	.	.	.	8gg\L	no-
.	.	.	.	.	.	8ee\J	.
4D/	.	.	.	.	.	8ff#\L	-men
.	.	.	.	.	.	8dd\J	.
=63	=63	=63	=63	=63	=63	=63	=63
4A\	.	2.ryy	2.ryy	2.ryy	2.ryy	4.cc#\	Do-
*	*above	*	*	*	*	*	*
4G\	4 2	.	.	.	.	.	.
.	.	.	.	.	.	8ee\	-mi-
4F#\	.	.	.	.	.	4dd\	-ni
=64	=64	=64	=64	=64	=64	=64	=64
*	*below	*	*	*	*	*	*
2C#/	6 5	2.ryy	2.ryy	2.ryy	2.ryy	4r	.
.	.	.	.	.	.	8gg\L	in-
.	.	.	.	.	.	8ee\J	.
4D/	.	.	.	.	.	8ff#\L	-vo-
.	.	.	.	.	.	8dd\J	.
!LO:LB:g=original	!	!	!	!	!	!	!
=65	=65	=65	=65	=65	=65	=65	=65
4A\	.	2.ryy	2.ryy	2.ryy	2.ryy	4.cc#\	-ca-
*	*above	*	*	*	*	*	*
4G\	4 2	.	.	.	.	.	.
.	.	.	.	.	.	8ee\	.
!	!	!	!	!	!	!LO:TX:a:t=|:problem	!
4F#\	.	.	.	.	.	4dd\	-bo
!	!	!	!	!	!	!LO:LB:g=original	!
=66	=66	=66	=66	=66	=66	=66	=66
!	!	!	!	!	!	!LO:TX:b:t=1	!
4G\	.	2.ryy	2.ryy	2.ryy	2.ryy	2.r	.
4G\	.	.	.	.	.	.	.
*	*below	*	*	*	*	*	*
4F#\	6	.	.	.	.	.	.
=67	=67	=67	=67	=67	=67	=67	=67
4G\	.	2.ryy	2.ryy	2.ryy	2.ryy	4r	.
4G\	.	.	.	.	.	4dd\	in-
4F#\	6	.	.	.	.	4dd\	-vo-
=68	=68	=68	=68	=68	=68	=68	=68
4G\	.	2.ryy	2.ryy	2.ryy	2.ryy	[2.dd\	-ca-
4G#X\	5	.	.	.	.	.	.
4G#\	.	.	.	.	.	.	.
=69	=69	=69	=69	=69	=69	=69	=69
2.A;\	6 4	2.ryy	2.ryy	2.ryy	2.ryy	4dd;\]	.
.	3	.	.	.	.	2ee\	.
!LO:LB:g=original	!	!	!	!	!	!	!
=70	=70	=70	=70	=70	=70	=70	=70
!LO:TX:b:t=Volti Subito	!	!	!	!	!	!	!
4D/	.	2.ryy	2.ryy	2.ryy	2.ryy	4dd\	-bo
4r	.	.	.	.	.	4r	.
4r	.	.	.	.	.	4r	.
==	==	==	==	==	==	==	==
*-	*-	*-	*-	*-	*-	*-	*-
!!!system-decoration: s1[(s2,s3,s4,s5)]s6
!!!ENC: Tomasz Grochalski
!!!END: 2021-03-16
!!!EED: Leszek Kubiak
!!!EST: 2021-03-25
